X:160
T:Kentish Cricketers
R:polka 32 reel
C:Trad?
R:polka 32 reel
Z:PJH 2016
M:2/4
L:1/8
Q:1/4=140
K:D
|:c/B/|AF dB|A/G/F/E/ D>B|AF dc/d/|eE EF/G/|
AF dB|A/G/F/E/ Df|e>d ef|1d2- d:|2d2 d|]
|:A|d/e/f/g/ af|bg af|f>e df|e3 e|
d/e/f/g/ af|bg af|e>d ef|d2- d:|]

